X:448
T:O son do ar
T:ABA
Z:Jack Campin, http://www.campin.me.uk/
F:Jack Campin's Nine-Note Tunebook
% last edit 03-02-2013
C:Bieito Romero / Luar na Lubre 
M:3/4
L:1/8
Q:3/4=54
P:ABA
K:DDor
P:A
  D2E2|F3 E F2|G3 F G2|A3  G F2|D3
[1 FA2|c3 d c2|B3 c B2|B3  A G2|A2:|
[2 FG2|F3 E D2|C3 D E2|D6-     |D2|]
P:B
  AGFE|D4   E2|C4   E2|D3  E F2|G3
[1 FE2|D4   E2|C4   E2|E2 D3  C|D2:|
[2 FE2|F3 E D2|E3 D C2|D6-     |D2||

